X: 5130
T: Bridgie Con Matt's
R: polka
M: 2/4
K: Gmajor
GB BA/c/|BG G/F/G/A/|GB B/c/d/B/|AD FD/F/|
GB BA/c/|BG GF/G/|A>G A/B/c/B/|AD FA:|
Be ef/e/|d/e/f/a/ g2|Be ed/B/|AD FA|
Be ef/e/|d/e/f/a/ g2|gg/e/ dd/B/|AD FA:|

